X:94
T:Polly Wright. JJo8.094
B:J.Johnson Choice Collection Vol 8 1758
Z:vmp.Simon Wilson 2013 www.village-music-project.org.uk
M:C|
L:1/8
Q:1/2=90
K:C
|:c2eg fedc|Bcde fdcB|c2egB2dg|Aag^fg4:|
|:GABc defg|ecaf dBGB|cecA fdBg|ecGBc4:|
